packages/tokens/icons/puzzle/size32Px.svg

<svg viewBox="0 0 32 32" fill="none" xmlns="http://www.w3.org/2000/svg" width="1em" height="1em"><mask id="path-1-inside-1_979_6448" fill="currentColor"><path fill-rule="evenodd" clip-rule="evenodd" d="M14.6443 7.00869C14.9234 6.49876 14.5005 6 13.9192 6L9 6C7.89543 6 7 6.89543 7 8L7 13.8651C7 13.9396 6.9396 14 6.86508 14C6.54939 14 6.2606 13.8416 6.02935 13.6267C5.60661 13.2338 5.07606 13 4.5 13C3.11929 13 2 14.3432 2 16C2 17.6569 3.11929 19 4.5 19C5.07606 19 5.60661 18.7662 6.02935 18.3734C6.26061 18.1585 6.54939 18 6.86509 18C6.9396 18 7 18.0604 7 18.1349L7 24C7 25.1046 7.89543 26 9 26L13.9192 26C14.5005 26 14.9234 25.5012 14.6443 24.9913C14.5899 24.892 14.5328 24.7932 14.4756 24.6943C14.3279 24.4386 14.1797 24.1821 14.0773 23.9143C14.0269 23.7827 14 23.6437 14 23.5C14 22.6716 14.8954 22 16 22C17.1046 22 18 22.6716 18 23.5C18 23.6437 17.9731 23.7827 17.9227 23.9143C17.8203 24.1821 17.6721 24.4386 17.5244 24.6943C17.4672 24.7932 17.4101 24.892 17.3557 24.9913C17.0766 25.5012 17.4995 26 18.0808 26H23C24.1046 26 25 25.1046 25 24V18.1349C25 18.0604 25.0604 18 25.1349 18C25.4505 18 25.7393 18.1585 25.9706 18.3734C26.3933 18.7662 26.9239 19 27.4999 19C28.8807 19 29.9999 17.6569 29.9999 16C29.9999 14.3431 28.8807 13 27.4999 13C26.9239 13 26.3933 13.2338 25.9706 13.6266C25.7393 13.8415 25.4505 14 25.1349 14C25.0604 14 25 13.9396 25 13.8651V8C25 6.89543 24.1046 6 23 6L18.0808 6C17.4995 6 17.0766 6.49876 17.3557 7.00868C17.4101 7.10799 17.4672 7.20679 17.5244 7.3057C17.6721 7.56141 17.8203 7.81787 17.9227 8.08571C17.9731 8.21729 18 8.35629 18 8.5C18 9.32843 17.1046 10 16 10C14.8954 10 14 9.32843 14 8.5C14 8.35629 14.0269 8.21729 14.0773 8.08571C14.1797 7.81787 14.3279 7.56141 14.4756 7.3057C14.5328 7.20679 14.5899 7.10799 14.6443 7.00869Z"/></mask><path d="M6.02935 13.6267L5.34862 14.3592H5.34862L6.02935 13.6267ZM4.5 13L4.5 12H4.5L4.5 13ZM4.5 19L4.5 20H4.5V19ZM6.02935 18.3734L5.34862 17.6408L5.34862 17.6408L6.02935 18.3734ZM14.4756 24.6943L15.3415 24.194L14.4756 24.6943ZM14.0773 23.9143L15.0113 23.5572L15.0113 23.5571L14.0773 23.9143ZM17.9227 23.9143L16.9887 23.5571L16.9887 23.5572L17.9227 23.9143ZM17.5244 24.6943L16.6585 24.194L17.5244 24.6943ZM25.9706 18.3734L25.2899 19.1059L25.2899 19.1059L25.9706 18.3734ZM27.4999 19V20V19ZM27.4999 13V12V13ZM25.9706 13.6266L26.6513 14.3592V14.3592L25.9706 13.6266ZM17.5244 7.3057L18.3902 6.80535L18.3902 6.80535L17.5244 7.3057ZM17.9227 8.08571L16.9887 8.44285L16.9887 8.44285L17.9227 8.08571ZM14.0773 8.08571L15.0113 8.44285L15.0113 8.44285L14.0773 8.08571ZM14.4756 7.3057L13.6098 6.80535L13.6098 6.80535L14.4756 7.3057ZM14.6443 24.9913L13.7671 25.4715L14.6443 24.9913ZM17.3557 7.00868L16.4786 7.48883L17.3557 7.00868ZM14.6443 7.00869L13.7671 6.52854L14.6443 7.00869ZM9 7L13.9192 7V5L9 5V7ZM8 8C8 7.44772 8.44772 7 9 7V5C7.34315 5 6 6.34315 6 8H8ZM8 13.8651L8 8H6L6 13.8651H8ZM6.86508 15C7.49188 15 8 14.4919 8 13.8651H6C6 13.3873 6.38731 13 6.86508 13L6.86508 15ZM5.34862 14.3592C5.68816 14.6747 6.20867 15 6.86508 15L6.86508 13C6.87758 13 6.87192 13.0036 6.84308 12.9899C6.81207 12.9752 6.7656 12.9457 6.71007 12.8941L5.34862 14.3592ZM4.5 14C4.79382 14 5.08792 14.1169 5.34862 14.3592L6.71007 12.8941C6.1253 12.3507 5.35829 12 4.5 12L4.5 14ZM3 16C3 14.717 3.83454 14 4.5 14L4.5 12C2.40403 12 1 13.9693 1 16H3ZM4.5 18C3.83454 18 3 17.283 3 16H1C1 18.0307 2.40403 20 4.5 20L4.5 18ZM5.34862 17.6408C5.08792 17.8831 4.79383 18 4.5 18V20C5.35829 20 6.1253 19.6493 6.71007 19.1059L5.34862 17.6408ZM6.86509 17C6.20867 17 5.68816 17.3253 5.34862 17.6408L6.71007 19.1059C6.7656 19.0543 6.81207 19.0248 6.84308 19.0101C6.87193 18.9965 6.87758 19 6.86509 19V17ZM8 18.1349C8 17.5081 7.49188 17 6.86509 17V19C6.38731 19 6 18.6127 6 18.1349H8ZM8 24L8 18.1349H6L6 24H8ZM9 25C8.44771 25 8 24.5523 8 24H6C6 25.6569 7.34315 27 9 27V25ZM13.9192 25L9 25V27L13.9192 27V25ZM15.5214 24.5112C15.4606 24.4 15.3976 24.2911 15.3415 24.194L13.6098 25.1946C13.668 25.2953 13.7192 25.384 13.7671 25.4715L15.5214 24.5112ZM15.3415 24.194C15.186 23.9249 15.0803 23.7377 15.0113 23.5572L13.1432 24.2714C13.279 24.6266 13.4697 24.9522 13.6098 25.1946L15.3415 24.194ZM15.0113 23.5571C15.0029 23.535 15 23.5169 15 23.5L13 23.5C13 23.7706 13.051 24.0304 13.1432 24.2714L15.0113 23.5571ZM15 23.5C15 23.4711 15.0133 23.3687 15.1858 23.2393C15.3586 23.1097 15.6432 23 16 23L16 21C15.2523 21 14.5368 21.2261 13.9858 21.6393C13.4344 22.0529 13 22.7005 13 23.5L15 23.5ZM16 23C16.3568 23 16.6414 23.1097 16.8142 23.2393C16.9867 23.3687 17 23.4711 17 23.5H19C19 22.7005 18.5656 22.0529 18.0142 21.6393C17.4632 21.2261 16.7477 21 16 21L16 23ZM17 23.5C17 23.5169 16.9971 23.535 16.9887 23.5571L18.8568 24.2714C18.949 24.0304 19 23.7706 19 23.5H17ZM16.9887 23.5572C16.9197 23.7377 16.814 23.9249 16.6585 24.194L18.3902 25.1946C18.5303 24.9522 18.721 24.6266 18.8568 24.2714L16.9887 23.5572ZM16.6585 24.194C16.6024 24.2911 16.5394 24.4 16.4786 24.5112L18.2329 25.4715C18.2808 25.384 18.332 25.2953 18.3902 25.1946L16.6585 24.194ZM23 25H18.0808V27H23V25ZM24 24C24 24.5523 23.5523 25 23 25V27C24.6569 27 26 25.6569 26 24H24ZM24 18.1349V24H26V18.1349H24ZM25.1349 17C24.5081 17 24 17.5081 24 18.1349H26C26 18.6127 25.6127 19 25.1349 19L25.1349 17ZM26.6513 17.6408C26.3118 17.3253 25.7913 17 25.1349 17L25.1349 19C25.1224 19 25.128 18.9965 25.1569 19.0101C25.1879 19.0248 25.2343 19.0543 25.2899 19.1059L26.6513 17.6408ZM27.4999 18C27.2061 18 26.912 17.8831 26.6513 17.6408L25.2899 19.1059C25.8746 19.6493 26.6417 20 27.4999 20V18ZM28.9999 16C28.9999 17.283 28.1654 18 27.4999 18V20C29.5959 20 30.9999 18.0307 30.9999 16L28.9999 16ZM27.4999 14C28.1654 14 28.9999 14.717 28.9999 16L30.9999 16C30.9999 13.9693 29.5959 12 27.4999 12V14ZM26.6513 14.3592C26.912 14.1169 27.2061 14 27.4999 14V12C26.6417 12 25.8746 12.3507 25.2899 12.8941L26.6513 14.3592ZM25.1349 15C25.7913 15 26.3118 14.6747 26.6513 14.3592L25.2899 12.8941C25.2343 12.9457 25.1879 12.9752 25.1569 12.9899C25.128 13.0035 25.1224 13 25.1349 13V15ZM24 13.8651C24 14.4919 24.5081 15 25.1349 15V13C25.6127 13 26 13.3873 26 13.8651H24ZM24 8V13.8651H26V8H24ZM23 7C23.5523 7 24 7.44772 24 8H26C26 6.34315 24.6569 5 23 5V7ZM18.0808 7L23 7V5L18.0808 5V7ZM16.4786 7.48883C16.5394 7.60002 16.6024 7.70887 16.6585 7.80605L18.3902 6.80535C18.332 6.7047 18.2808 6.61596 18.2329 6.52854L16.4786 7.48883ZM16.6585 7.80605C16.814 8.07507 16.9197 8.2623 16.9887 8.44285L18.8568 7.72857C18.721 7.37344 18.5303 7.04776 18.3902 6.80535L16.6585 7.80605ZM16.9887 8.44285C16.9971 8.46496 17 8.48314 17 8.5L19 8.5C19 8.22943 18.949 7.96963 18.8568 7.72857L16.9887 8.44285ZM17 8.5C17 8.52889 16.9867 8.63128 16.8142 8.76066C16.6414 8.89027 16.3568 9 16 9V11C16.7477 11 17.4632 10.7739 18.0142 10.3607C18.5656 9.94714 19 9.29954 19 8.5L17 8.5ZM16 9C15.6432 9 15.3586 8.89027 15.1858 8.76066C15.0133 8.63128 15 8.52889 15 8.5H13C13 9.29954 13.4344 9.94714 13.9858 10.3607C14.5368 10.7739 15.2523 11 16 11V9ZM15 8.5C15 8.48314 15.0029 8.46496 15.0113 8.44285L13.1432 7.72857C13.051 7.96963 13 8.22943 13 8.5H15ZM15.0113 8.44285C15.0803 8.2623 15.186 8.07507 15.3415 7.80605L13.6098 6.80535C13.4697 7.04776 13.279 7.37344 13.1432 7.72857L15.0113 8.44285ZM15.3415 7.80605C15.3976 7.70887 15.4606 7.60002 15.5214 7.48883L13.7671 6.52854C13.7192 6.61596 13.668 6.7047 13.6098 6.80535L15.3415 7.80605ZM16.4786 24.5112C16.1458 25.1192 16.222 25.7962 16.6 26.2927C16.9525 26.7556 17.5123 27 18.0808 27V25C18.068 25 18.1257 24.995 18.1912 25.0811C18.2264 25.1273 18.2594 25.1973 18.2664 25.2843C18.2735 25.3742 18.2498 25.4407 18.2329 25.4715L16.4786 24.5112ZM13.9192 27C14.4877 27 15.0475 26.7556 15.4 26.2927C15.778 25.7962 15.8542 25.1192 15.5214 24.5112L13.7671 25.4715C13.7502 25.4407 13.7265 25.3742 13.7336 25.2843C13.7406 25.1973 13.7736 25.1273 13.8088 25.0811C13.8743 24.995 13.932 25 13.9192 25V27ZM18.0808 5C17.5123 5 16.9525 5.24438 16.6 5.7073C16.222 6.20377 16.1458 6.88085 16.4786 7.48883L18.2329 6.52854C18.2498 6.55926 18.2735 6.62581 18.2664 6.71566C18.2594 6.80274 18.2264 6.8727 18.1912 6.91894C18.1257 7.005 18.068 7 18.0808 7V5ZM13.9192 7C13.932 7 13.8743 7.005 13.8088 6.91894C13.7736 6.87271 13.7406 6.80274 13.7336 6.71566C13.7265 6.62582 13.7502 6.55926 13.7671 6.52854L15.5214 7.48883C15.8542 6.88084 15.778 6.20377 15.4 5.7073C15.0475 5.24438 14.4877 5 13.9192 5V7Z" fill="currentColor" mask="url(#path-1-inside-1_979_6448)"/></svg>

<svg xmlns="http://www.w3.org/2000/svg" fill="none" viewBox="0 0 32 32" width="1em" height="1em"><mask id="iconsPuzzleSize32Px__a" fill="#fff"><path fill-rule="evenodd" d="M14.644 7.009c.28-.51-.143-1.009-.725-1.009H9a2 2 0 0 0-2 2v5.865c0 .075-.06.135-.135.135-.316 0-.604-.158-.836-.373C5.607 13.234 5.076 13 4.5 13 3.12 13 2 14.343 2 16s1.12 3 2.5 3c.576 0 1.107-.234 1.53-.627.23-.215.52-.373.835-.373.075 0 .135.06.135.135V24a2 2 0 0 0 2 2h4.92c.58 0 1.003-.499.724-1.009a14.864 14.864 0 0 0-.168-.297 5.573 5.573 0 0 1-.399-.78A1.153 1.153 0 0 1 14 23.5c0-.828.895-1.5 2-1.5s2 .672 2 1.5c0 .144-.027.283-.077.414-.103.268-.25.525-.399.78-.057.1-.114.198-.168.297-.28.51.143 1.009.725 1.009H23a2 2 0 0 0 2-2v-5.865c0-.075.06-.135.135-.135.316 0 .604.159.836.373.422.393.953.627 1.529.627 1.38 0 2.5-1.343 2.5-3s-1.12-3-2.5-3c-.576 0-1.107.234-1.53.627-.23.214-.52.373-.835.373a.135.135 0 0 1-.135-.135V8a2 2 0 0 0-2-2h-4.92c-.58 0-1.003.499-.724 1.009.054.099.111.198.168.297.148.255.296.512.399.78.05.131.077.27.077.414 0 .828-.895 1.5-2 1.5s-2-.672-2-1.5c0-.144.027-.283.077-.414.103-.268.25-.525.399-.78.057-.1.114-.198.168-.297Z" clip-rule="evenodd"/></mask><path fill="currentColor" d="m6.03 13.627-.681.732.68-.732ZM4.5 13v-1 1Zm0 6v1-1Zm1.53-.627-.681-.732.68.732Zm8.446 6.321.865-.5-.865.5Zm-.399-.78.934-.357-.934.357Zm3.846 0-.934-.357.934.357Zm-.399.78-.866-.5.866.5Zm8.447-6.32-.681.732.68-.733ZM27.5 19v1-1Zm0-6v-1 1Zm-1.53.627.681.732-.68-.732Zm-8.446-6.321.866-.5-.866.5Zm.399.78-.934.357.934-.357Zm-3.846 0 .934.357-.934-.357Zm.399-.78-.866-.5.866.5Zm.168 17.685-.877.48.877-.48ZM17.356 7.01l-.877.48.877-.48Zm-2.712 0-.877-.48.877.48ZM9 7h4.92V5H9v2ZM8 8a1 1 0 0 1 1-1V5a3 3 0 0 0-3 3h2Zm0 5.865V8H6v5.865h2ZM6.865 15C7.492 15 8 14.492 8 13.865H6c0-.478.387-.865.865-.865v2Zm-1.516-.64c.34.315.86.64 1.516.64v-2c.013 0 .007.004-.022-.01a.556.556 0 0 1-.133-.096L5.35 14.36ZM4.5 14c.294 0 .588.117.849.36l1.361-1.466C6.125 12.351 5.358 12 4.5 12v2ZM3 16c0-1.283.835-2 1.5-2v-2C2.404 12 1 13.97 1 16h2Zm1.5 2c-.665 0-1.5-.717-1.5-2H1c0 2.03 1.404 4 3.5 4v-2Zm.849-.36c-.261.243-.555.36-.849.36v2c.858 0 1.625-.35 2.21-.894L5.35 17.64ZM6.865 17c-.656 0-1.177.325-1.516.64l1.361 1.466a.556.556 0 0 1 .133-.096c.029-.014.035-.01.022-.01v-2ZM8 18.135C8 17.508 7.492 17 6.865 17v2A.865.865 0 0 1 6 18.135h2ZM8 24v-5.865H6V24h2Zm1 1a1 1 0 0 1-1-1H6a3 3 0 0 0 3 3v-2Zm4.92 0H9v2h4.92v-2Zm1.601-.489c-.06-.111-.123-.22-.18-.317l-1.731 1c.058.101.11.19.157.277l1.754-.96Zm-.18-.317a4.697 4.697 0 0 1-.33-.637l-1.868.714c.136.356.327.681.467.924l1.732-1.001Zm-.33-.637A.156.156 0 0 1 15 23.5h-2c0 .27.051.53.143.771l1.868-.714ZM15 23.5c0-.029.013-.131.186-.26.173-.13.457-.24.814-.24v-2c-.748 0-1.463.226-2.014.64-.552.413-.986 1.06-.986 1.86h2Zm1-.5c.357 0 .641.11.814.24.173.129.186.231.186.26h2c0-.8-.434-1.447-.986-1.86-.55-.414-1.266-.64-2.014-.64v2Zm1 .5a.156.156 0 0 1-.011.057l1.868.714c.092-.24.143-.5.143-.771h-2Zm-.011.057c-.07.18-.175.368-.33.637l1.731 1c.14-.242.331-.567.467-.923l-1.868-.714Zm-.33.637c-.057.097-.12.206-.18.317l1.754.96c.048-.087.099-.176.157-.276l-1.732-1.001ZM23 25h-4.92v2H23v-2Zm1-1a1 1 0 0 1-1 1v2a3 3 0 0 0 3-3h-2Zm0-5.865V24h2v-5.865h-2ZM25.135 17c-.627 0-1.135.508-1.135 1.135h2a.865.865 0 0 1-.865.865v-2Zm1.516.64c-.34-.315-.86-.64-1.516-.64v2c-.013 0-.007-.003.022.01a.558.558 0 0 1 .133.096l1.361-1.465Zm.849.36c-.294 0-.588-.117-.849-.36l-1.361 1.466c.585.543 1.352.894 2.21.894v-2Zm1.5-2c0 1.283-.835 2-1.5 2v2c2.096 0 3.5-1.97 3.5-4h-2Zm-1.5-2c.665 0 1.5.717 1.5 2h2c0-2.03-1.404-4-3.5-4v2Zm-.849.36c.261-.243.555-.36.849-.36v-2c-.858 0-1.625.35-2.21.894l1.361 1.465Zm-1.516.64c.656 0 1.177-.325 1.516-.64l-1.361-1.466a.558.558 0 0 1-.133.096c-.029.014-.035.01-.022.01v2ZM24 13.865c0 .627.508 1.135 1.135 1.135v-2c.478 0 .865.387.865.865h-2ZM24 8v5.865h2V8h-2Zm-1-1a1 1 0 0 1 1 1h2a3 3 0 0 0-3-3v2Zm-4.92 0H23V5h-4.92v2Zm-1.601.489c.06.111.123.22.18.317l1.731-1c-.058-.101-.11-.19-.157-.277l-1.754.96Zm.18.317c.155.27.26.456.33.637l1.868-.714c-.136-.356-.327-.681-.467-.924l-1.732 1.001Zm.33.637c.008.022.011.04.011.057h2c0-.27-.051-.53-.143-.771l-1.868.714ZM17 8.5c0 .029-.013.131-.186.26-.173.13-.457.24-.814.24v2c.748 0 1.463-.226 2.014-.64.552-.413.986-1.06.986-1.86h-2ZM16 9c-.357 0-.641-.11-.814-.24-.173-.128-.186-.23-.186-.26h-2c0 .8.434 1.447.986 1.86.55.414 1.266.64 2.014.64V9Zm-1-.5c0-.017.003-.035.011-.057l-1.868-.714c-.092.24-.143.5-.143.771h2Zm.011-.057a4.69 4.69 0 0 1 .33-.637l-1.731-1c-.14.242-.331.567-.467.923l1.868.714Zm.33-.637c.057-.097.12-.206.18-.317l-1.754-.96a14.82 14.82 0 0 1-.157.276l1.732 1.001Zm1.138 16.705a1.616 1.616 0 0 0 .121 1.782c.352.463.912.707 1.48.707v-2c-.012 0 .046-.005.111.081a.39.39 0 0 1 .042.39l-1.754-.96ZM13.919 27c.569 0 1.128-.244 1.481-.707a1.616 1.616 0 0 0 .121-1.782l-1.754.96a.39.39 0 0 1 .042-.39c.065-.086.123-.081.11-.081v2Zm4.162-22c-.569 0-1.128.244-1.481.707a1.616 1.616 0 0 0-.121 1.782l1.754-.96a.39.39 0 0 1-.042.39c-.065.086-.123.081-.11.081V5Zm-4.162 2c.013 0-.045.005-.11-.081a.39.39 0 0 1-.042-.39l1.754.96a1.616 1.616 0 0 0-.121-1.782C15.047 5.244 14.488 5 13.92 5v2Z" mask="url(#iconsPuzzleSize32Px__a)"/></svg>
